X:2
T:Finnskovalsen
R:vals
Z:2002 Brian Wilson <baab@mediaone.net>
M:3/4
L:1/8
K:D
A,2\
|| "D"D2 DC DE | "D/A"F2 AF AF | "G"G2 BG B2 | "D"BA AF D2 \
| "D"DE DC DE | "D/A"F2 AF AF | "A"E2 "A/B"EG "A/C#"EC |[1 "D"D4 A,2 :|[2 "D"D4 A2 |]
|: "D"A3 f f2 | "A"f2 eg ec | "G"d2 Bd BG | "D"A4 F2 \
| "D"D2 DF AF | "Em"G2 GE GB | "E"e2 ed B^G | "A"A2-"A/B"A2 "A/C#"A2 |
| "D"A3 f f2 | "A"f2 eg ec | "G"d2 Bd BG | "D"A4 F2 \
| "D"D2 DF AF | "G"G2 BG BG | "D"A2 fd "A"ec | "D"d4 A2 :|

